X: 5
T: The Morning Star
R: reel
M: 4/4
L: 1/8
K: Fmaj
|: F3G AB AG |FG (3A_Bc de fc | AF cA _Bc AG | FA GE Fc z_B |GA z_B AG (3CDE | FG (3A_Bc de fc |AF cA _Bc AG | FA GE F2 G2 |_Bc df z2 Be | zd ce dc AG | A_B ce fc (3def | ed ce dc dG |_Bc d[fA] z2 Be | zd ce dc AG | A3_B _zc de | ef ge ed c_B :|]


Tune 828	Setting 13979

